icons/line/cake.svg

<svg width="24" height="24" viewBox="0 0 24 24" fill="none" xmlns="http://www.w3.org/2000/svg">
<path fill-rule="evenodd" clip-rule="evenodd" d="M16 3C16 3.55228 15.5523 4 15 4C14.4477 4 14 3.55228 14 3C14 2.44772 14.4477 2 15 2C15.5523 2 16 2.44772 16 3ZM9 5C9.55228 5 10 5.44772 10 6V7H11V6C11 5.44772 11.4477 5 12 5C12.5523 5 13 5.44772 13 6V7H14V6C14 5.44772 14.4477 5 15 5C15.5523 5 16 5.44772 16 6V7C17.6569 7 19 8.34315 19 10V11C20.6569 11 22 12.3431 22 14V15V19C22 20.6569 20.6569 22 19 22H5C3.34315 22 2 20.6569 2 19V15V14C2 12.3431 3.34315 11 5 11V10C5 8.34315 6.34315 7 8 7V6C8 5.44772 8.44772 5 9 5ZM17 11V10C17 9.44772 16.5523 9 16 9H15H12H9H8C7.44772 9 7 9.44772 7 10V11H17ZM4.08211 13.6025C4.09489 13.6321 4.10636 13.6626 4.11644 13.6939C4.22809 14.0412 4.41532 14.3621 4.6899 14.5924C4.94969 14.8102 5.34933 15 5.99999 15C6.87407 15 7.32385 14.6582 7.58845 14.2907C7.88977 13.8722 7.99999 13.34 7.99999 13H6H5C4.58896 13 4.23585 13.248 4.08211 13.6025ZM9.99999 13C9.99999 13.34 10.1102 13.8722 10.4115 14.2907C10.6761 14.6582 11.1259 15 12 15C12.8741 15 13.3238 14.6582 13.5885 14.2907C13.8898 13.8722 14 13.34 14 13H9.99999ZM16 13C16 13.34 16.1102 13.8722 16.4115 14.2907C16.6761 14.6582 17.1259 15 18 15C18.6506 15 19.0503 14.8102 19.3101 14.5924C19.5846 14.3621 19.7719 14.0412 19.8835 13.6939C19.8936 13.6626 19.9051 13.6321 19.9179 13.6025C19.7641 13.248 19.411 13 19 13H18H16ZM20 16.5288C19.4462 16.8279 18.7797 17 18 17C16.6326 17 15.6472 16.4715 15 15.7266C14.3528 16.4715 13.3674 17 12 17C10.6326 17 9.6472 16.4715 8.99999 15.7266C8.35277 16.4715 7.36738 17 5.99999 17C5.22024 17 4.55382 16.8279 4 16.5288V19C4 19.5523 4.44772 20 5 20H19C19.5523 20 20 19.5523 20 19V16.5288ZM12 4C12.5523 4 13 3.55228 13 3C13 2.44772 12.5523 2 12 2C11.4477 2 11 2.44772 11 3C11 3.55228 11.4477 4 12 4ZM10 3C10 3.55228 9.55228 4 9 4C8.44772 4 8 3.55228 8 3C8 2.44772 8.44772 2 9 2C9.55228 2 10 2.44772 10 3Z" fill="currentColor"/>
</svg>

<svg width="24" height="24" fill="none" xmlns="http://www.w3.org/2000/svg"><path fill-rule="evenodd" clip-rule="evenodd" d="M16 3a1 1 0 11-2 0 1 1 0 012 0zM9 5a1 1 0 011 1v1h1V6a1 1 0 112 0v1h1V6a1 1 0 112 0v1a3 3 0 013 3v1a3 3 0 013 3v5a3 3 0 01-3 3H5a3 3 0 01-3-3v-5a3 3 0 013-3v-1a3 3 0 013-3V6a1 1 0 011-1zm8 6v-1a1 1 0 00-1-1H8a1 1 0 00-1 1v1h10zM4.082 13.602c.013.03.024.06.034.092.112.347.3.668.574.898.26.218.66.408 1.31.408.874 0 1.324-.342 1.588-.71C7.89 13.873 8 13.34 8 13H5a1 1 0 00-.918.602zM10 13c0 .34.11.872.412 1.29.264.368.714.71 1.588.71.874 0 1.324-.342 1.588-.71.302-.418.412-.95.412-1.29h-4zm6 0c0 .34.11.872.412 1.29.264.368.714.71 1.588.71.65 0 1.05-.19 1.31-.408.275-.23.462-.55.574-.898.01-.031.021-.062.034-.092A1 1 0 0019 13h-3zm4 3.529c-.554.299-1.22.471-2 .471-1.367 0-2.353-.529-3-1.273-.647.744-1.633 1.273-3 1.273s-2.353-.529-3-1.273C8.353 16.47 7.367 17 6 17c-.78 0-1.446-.172-2-.471V19a1 1 0 001 1h14a1 1 0 001-1v-2.471zM12 4a1 1 0 100-2 1 1 0 000 2zm-2-1a1 1 0 11-2 0 1 1 0 012 0z" fill="currentColor"/></svg>
